packages/core/src/svgs/tokens/mono/PURSE.svg

<svg width="24" height="24" viewBox="0 0 24 24" fill="none" xmlns="http://www.w3.org/2000/svg">
<path d="M3.0022 8.66968H6.33475C6.51151 8.66968 6.68104 8.73989 6.80603 8.86488C6.93103 8.98989 7.00125 9.15941 7.00125 9.33618V12.6687H3.6687C3.49194 12.6687 3.32241 12.5985 3.19742 12.4735C3.07241 12.3484 3.0022 12.1789 3.0022 12.0023V8.66968ZM20.9979 8.66968H17.6654C17.4886 8.66968 17.3191 8.73989 17.194 8.86488C17.0692 8.98989 16.9989 9.15941 16.9989 9.33618V12.6687H20.3315C20.5081 12.6687 20.6777 12.5985 20.8027 12.4735C20.9277 12.3484 20.9979 12.1789 20.9979 12.0023V8.66968ZM7.66776 9.33618C7.66776 9.15941 7.73798 8.98989 7.86298 8.86488C7.98797 8.73989 8.1575 8.66968 8.33426 8.66968H11.0004C11.177 8.66968 11.3465 8.73989 11.4716 8.86488C11.5966 8.98989 11.6668 9.15941 11.6668 9.33618V12.0023C11.6668 12.1789 11.5966 12.3484 11.4716 12.4735C11.3465 12.5985 11.177 12.6687 11.0004 12.6687H8.33426C8.1575 12.6687 7.98797 12.5985 7.86298 12.4735C7.73798 12.3484 7.66776 12.1789 7.66776 12.0023V9.33618Z" fill="white"/>
<path d="M3.0022 14.002C3.0022 13.8252 3.07241 13.6557 3.19742 13.5306C3.32241 13.4057 3.49194 13.3354 3.6687 13.3354H6.33475C6.51151 13.3354 6.68104 13.4057 6.80603 13.5306C6.93103 13.6557 7.00125 13.8252 7.00125 14.002V16.6681C7.00125 16.8447 6.93103 17.0142 6.80603 17.1393C6.68104 17.2643 6.51151 17.3345 6.33475 17.3345H3.6687C3.49194 17.3345 3.32241 17.2643 3.19742 17.1393C3.07241 17.0142 3.0022 16.8447 3.0022 16.6681V14.002ZM16.9989 14.002C16.9989 13.8252 17.0692 13.6557 17.194 13.5306C17.3191 13.4057 17.4886 13.3354 17.6654 13.3354H20.3315C20.5081 13.3354 20.6777 13.4057 20.8027 13.5306C20.9277 13.6557 20.9979 13.8252 20.9979 14.002V16.6681C20.9979 16.8447 20.9277 17.0142 20.8027 17.1393C20.6777 17.2643 20.5081 17.3345 20.3315 17.3345H17.6654C17.4886 17.3345 17.3191 17.2643 17.194 17.1393C17.0692 17.0142 16.9989 16.8447 16.9989 16.6681V14.002ZM12.3333 18.6676C12.3333 18.4907 12.4036 18.3212 12.5285 18.1962C12.6535 18.0713 12.823 18.001 12.9999 18.001H15.6659C15.8426 18.001 16.0121 18.0713 16.1371 18.1962C16.2622 18.3212 16.3323 18.4907 16.3323 18.6676V21.3336C16.3323 21.5103 16.2622 21.6798 16.1371 21.8048C16.0121 21.9299 15.8426 22 15.6659 22H12.9999C12.823 22 12.6535 21.9299 12.5285 21.8048C12.4036 21.6798 12.3333 21.5103 12.3333 21.3336V18.6676ZM7.66776 18.6676C7.66776 18.4907 7.73798 18.3212 7.86298 18.1962C7.98797 18.0713 8.1575 18.001 8.33426 18.001H11.0004C11.177 18.001 11.3465 18.0713 11.4716 18.1962C11.5966 18.3212 11.6668 18.4907 11.6668 18.6676V21.3336C11.6668 21.5103 11.5966 21.6798 11.4716 21.8048C11.3465 21.9299 11.177 22 11.0004 22H8.33426C8.1575 22 7.98797 21.9299 7.86298 21.8048C7.73798 21.6798 7.66776 21.5103 7.66776 21.3336V18.6676Z" fill="white"/>
<path d="M12.3335 9.33618C12.3335 9.15941 12.4038 8.98989 12.5287 8.86488C12.6537 8.73989 12.8232 8.66968 13 8.66968H15.6661C15.8428 8.66968 16.0123 8.73989 16.1373 8.86488C16.2624 8.98989 16.3325 9.15941 16.3325 9.33618V12.0023C16.3325 12.1789 16.2624 12.3484 16.1373 12.4735C16.0123 12.5985 15.8428 12.6687 15.6661 12.6687H13C12.8232 12.6687 12.6537 12.5985 12.5287 12.4735C12.4038 12.3484 12.3335 12.1789 12.3335 12.0023V9.33618Z" fill="white"/>
<path d="M3.0022 18.6675C3.0022 18.4907 3.07241 18.3212 3.19742 18.1962C3.32241 18.0713 3.49194 18.001 3.6687 18.001H7.00125V21.3336C7.00125 21.5103 6.93103 21.6798 6.80603 21.8048C6.68104 21.9298 6.51151 22 6.33475 22H3.6687C3.49194 22 3.32241 21.9298 3.19742 21.8048C3.07241 21.6798 3.0022 21.5103 3.0022 21.3336V18.6675Z" fill="white"/>
<path d="M16.1521 3.80436C16.3921 4.03764 16.3921 4.40421 16.1521 4.62416L13.9993 6.67033L11.8466 4.62416C11.7912 4.57184 11.7472 4.5088 11.7172 4.43889C11.687 4.36899 11.6716 4.29368 11.6716 4.21759C11.6716 4.14149 11.687 4.06617 11.7172 3.99628C11.7472 3.92638 11.7912 3.86333 11.8466 3.81101L13.5662 2.17141C13.6834 2.06129 13.8383 2 13.9993 2C14.1602 2 14.3151 2.06129 14.4326 2.17141L16.1521 3.81101V3.80436Z" fill="white"/>
<path d="M11.6666 3.34446L11.1801 3.81101C11.1248 3.86333 11.0808 3.92638 11.0508 3.99628C11.0207 4.06617 11.0052 4.14149 11.0052 4.21759C11.0052 4.29368 11.0207 4.36899 11.0508 4.43889C11.0808 4.5088 11.1248 4.57184 11.1801 4.62416L11.6666 5.09072L10.0004 6.67034L7.84758 4.62416C7.79231 4.57184 7.7483 4.5088 7.71821 4.43889C7.68813 4.36899 7.67261 4.29368 7.67261 4.21759C7.67261 4.14149 7.68813 4.06617 7.71821 3.99628C7.7483 3.92638 7.79231 3.86333 7.84758 3.81101L9.5671 2.17141C9.68452 2.06129 9.83942 2 10.0004 2C10.1613 2 10.3162 2.06129 10.4337 2.17141L11.6666 3.34446ZM20.9977 18.6675C20.9977 18.4907 20.9276 18.3212 20.8026 18.1961C20.6775 18.0713 20.508 18.001 20.3313 18.001H16.9987V21.3336C16.9987 21.5102 17.069 21.6798 17.1939 21.8048C17.3189 21.9298 17.4884 22 17.6653 22H20.3313C20.508 22 20.6775 21.9298 20.8026 21.8048C20.9276 21.6798 20.9977 21.5102 20.9977 21.3336V18.6675Z" fill="white"/>
</svg>

<svg xmlns="http://www.w3.org/2000/svg" width="24" height="24" fill="none" viewBox="0 0 24 24">
    <path fill="#fff" d="M3.002 8.67h3.333A.666.666 0 0 1 7 9.336v3.333H3.67a.666.666 0 0 1-.667-.667zm17.996 0h-3.333a.667.667 0 0 0-.666.666v3.333h3.332a.667.667 0 0 0 .667-.667zm-13.33.666a.667.667 0 0 1 .666-.666H11a.667.667 0 0 1 .667.666v2.666a.667.667 0 0 1-.667.667H8.334a.666.666 0 0 1-.666-.667zm-4.666 4.666a.667.667 0 0 1 .667-.667h2.666a.667.667 0 0 1 .666.667v2.666a.667.667 0 0 1-.666.666H3.669a.666.666 0 0 1-.667-.666zm13.997 0a.67.67 0 0 1 .666-.667h2.666a.667.667 0 0 1 .667.667v2.666a.667.667 0 0 1-.667.666h-2.666a.667.667 0 0 1-.666-.666zm-4.666 4.666A.667.667 0 0 1 13 18h2.666a.667.667 0 0 1 .666.667v2.666a.666.666 0 0 1-.666.666H13a.666.666 0 0 1-.667-.666zm-4.665 0A.667.667 0 0 1 8.334 18H11a.667.667 0 0 1 .667.667v2.666A.666.666 0 0 1 11 22H8.334a.666.666 0 0 1-.666-.666zm4.666-9.332A.667.667 0 0 1 13 8.67h2.666a.666.666 0 0 1 .666.666v2.666a.666.666 0 0 1-.666.667H13a.666.666 0 0 1-.666-.667zm-9.332 9.332A.666.666 0 0 1 3.67 18H7v3.333a.666.666 0 0 1-.666.666H3.669a.666.666 0 0 1-.667-.666zm13.15-14.864c.24.234.24.6 0 .82L14 6.67l-2.152-2.046a.56.56 0 0 1-.13-.628.6.6 0 0 1 .13-.185l1.72-1.64a.63.63 0 0 1 .866 0l1.72 1.64z"/>
    <path fill="#fff" d="m11.667 3.344-.487.467a.56.56 0 0 0 0 .813l.487.467L10 6.67 7.848 4.623a.56.56 0 0 1 0-.813l1.72-1.64a.633.633 0 0 1 .866 0zm9.33 15.324a.667.667 0 0 0-.666-.667H17v3.333a.667.667 0 0 0 .666.666h2.666a.667.667 0 0 0 .667-.666z"/>
</svg>
